X:338
T:Pye Corner. (p)1695.PLFD.338
M:3/4
L:1/4
Q:3/4=80
S:Playford, Dancing Master,9th Ed,1695.
O:England
H:1695.
Z:Chris Partington.
K:Bb
d|g/^f/g/a/g|g/^f/g/a/g|g2d|d2=e|(f<c)(f/c/)|(f<c)(f/c/)|
(f<c)(f/c/)|A2F|Bdd|dfd|gaf|b2a|g=ef|=eA^c|
d3|d2:||:d|B/A/B/c/B|B/A/B/c/B|B/A/B/c/B|d2=e|
(f<c)(f/c/)|(f<c)(f/c/)|(f<c)(f/c/)|a2a|(b<f)(b/f/)|(b<f)(b/f/)|
(d<B)d|g2f|edc|B<gB|AD^F|G2:|
